X:432
T:Caledonian March 
C:Joe Buchanan's Scottish Tome - Page 051.2
I:051 2
R:March
Z:Carl Allison
L:1/8
M:4/4
K:D
(F>G) | A>BA>F A2 (de) | f>ef>g f2 (ed) | B>cd>B AFED | A2 A>B A2 (F>G) |
A>BA>F A2 (d>e) | f>ef>a gfed | B>cd>B AFEF | D2 D>E D2 :|
(f>g) | a>gf>g a2 A2 | d>cd>e f2 F2 | G>FG>A B>cd>B | A>FE>D E2 (FG) |
A>BA>F A2 (d>e) | f>ef>a gfed |B>cd>B A>FE>F | D2 D>E D2 :|

